X: 310
T: Beyâtî Peşrev
C: Seyfettin Osmanoğlu
O: Turkey
F: http://compmusic.upf.edu/node/140
N: beyati--pesrev--hafif----seyfettin_osmanoglu
N: makam= beyati
N: form= pesrev
N: usul= hafif = 32/4
M: 32/4
L: 1/16
K: C _2/4B   
Q: 1/4=72
%%MIDI tuningsystem comma53
d4 c4 d2 e2 f g e d  | d2 {e}d4 e2 d2 e2 d2 c2  | \
w:  1. HANE  |   | 
z2 d2 c2 B2 c3 B c2 d2  | 
w:   | 
z2 d f e2 d2 d2 c B A4  | A3 a g2 f2 e3 g f2 e2  | \
w:   |   | 
d3 f e2 d2 {e}d2 c4 B2  | 
w:   | 
B2 c4 d2 d4 _7/8e2 d2  | g3 ^3/4f _2/4e3 d d8  | \
w:   |   | 
z2 d4 a2 g2 f2 e2 g2  | f3 e d2 f2 e2 d2 c2 B2  | 
w:   |   | 
B2 d4 e2 d2 e2 d2 c2  | c2 d2 c2 B A A3 B c4  | \
w:   |   | 
z2 c4 B2 c2 B2 c2 d f  | 
w:   | 
e2 d2 c2 B2 A4 G4  | G2 e2 d2 c2 c2 B2 B3 A  | \
w:   |   | 
A3 B c2 d2 e2 g2 f4  | 
w:   | 
z2 f4 e2 f2 g2 f2 e2  | f2 a2 g2 f2 e3 d c4  | \
w:   |   | 
z2 e4 d2 e2 f2 e2 d2  | 
w:   | 
{e}d2 c4 B2 d4 c4  | z2 g4 ^3/4f2 g2 a2 g2 =f2  | \
w:   |   | 
f2 e2 e2 d2 d2 c2 B2 A2  | {B}A2 f4 {g}f e e3 d d3 c  | 
w:   |   | 
d6 c2 B2 c2 d4  | G2 d4 c2 d3 c d2 e2  | \
w:   |   | 
z2 c4 B2 c3 B c2 d2  | z2 B4 A2 B2 {c}B A B2 {d}c B  | 
w:   |   | 
A2 f e d e d c B/ A/ B/ c/ B A G4  | \
w:   | 
G2 f4 e2 f2 e2 f2 g2  | 
w:   | 
a2 g2 f2 .e2 z2 d e d2 c B  | B2 {d}c B c2 d f e2 d2 c2 B2  | \
w:   |   | 
A3 e d2 c B A4 z4  | 
w:   | 
d4 c4 B4 A4  | A c B A B2 c2 d8  | d4 e3 d c4 d3 c  | \
w:  2. HANE  |   |   | 
B3 d c3 B B2 {c}B A {B}A4  | 
w:   | 
z2 A4 f2 f4 e4  | g4 f4 a4 g2 f e  | \
w:   |   | 
d4 c2 B2 A4 G4  | A4 B2 c2 d8  | z2 d4 e2 e4 d4  | 
w:   |   |   | 
e3 d d f e d d4 c4  | z2 c4 e2 d4 c4  | \
w:   |   | 
c3 B A2 G2 e4 d4  | d2 d4 a2 a4 g4  | 
w:   |   | 
c'4 _3/4b2 a2 g2 f2 e2 d2  | d2 e2 d2 c2 c2 B2 B3 A  | \
w:   |   | 
A3 B c2 d2 e2 g2 f4  | 
w:   | 
z2 f4 e2 f2 g2 f2 e2  | f2 a2 g2 f2 e3 d c4  | \
w:   |   | 
z2 e4 d2 e2 f2 e2 d2  | 
w:   | 
{e}d2 c4 B2 d4 c4  | z2 g4 ^3/4f2 g2 a2 g2 =f2  | \
w:   |   | 
f2 e2 e2 d2 d2 c2 B2 A2  | {B}A2 f4 {g}f e e3 d d3 c  | 
w:   |   | 
d6 c2 B2 c2 d4  | G2 d4 c2 d3 c d2 e2  | \
w:   |   | 
z2 c4 B2 c3 B c2 d2  | z2 B4 A2 B2 {c}B A B2 {d}c B  | 
w:   |   | 
A2 f e d e d c B/ A/ B/ c/ B A G4  | \
w:   | 
G2 f4 e2 f2 e2 f2 g2  | 
w:   | 
a2 g2 f2 .e2 z2 d e d2 c B  | B2 {d}c B c2 d f e2 d2 c2 B2  | \
w:   |   | 
A3 e d2 c B A4 z4  | 
w:   | 
a4 g4 ^3/4f4 g4  | a3 g c'2 b a a8  | \
w:  3. HANE  |   | 
g4 ^3/4f4 _3/4e4 d4  | c4 B2 A2 d8  | \
w:   |   | 
a4 g4 g/ ^3/4f/ g/ a/ g f .e4  | 
w:   | 
g4 ^2/4f4 f/ e/ f/ g/ f e .d4  | f4 e4 e/ d/ e/ f/ e d c4  | \
w:   |   | 
d4 c2 B2 d8  | 
w:   | 
z2 g4 ^3/4f2 g4 a4  | a2 c'2 b2 a2 g4 ^3/4f2 e2  | \
w:   |   | 
^2/4f4 e2 f2 a2 g2 =f2 e2  | e2 d2 d2 c2 d8  | 
w:   |   | 
z2 c4 B2 A4 f4  | e2 f2 e2 a2 g2 f2 e2 d2  | \
w:   |   | 
z2 d4 e2 d2 c2 c2 B2  | A3 B c2 d2 e2 g2 f4  | 
w:   |   | 
z2 f4 e2 f2 g2 f2 e2  | f2 a2 g2 f2 e3 d c4  | \
w:   |   | 
z2 e4 d2 e2 f2 e2 d2  | 
w:   | 
{e}d2 c4 B2 d4 c4  | z2 g4 ^3/4f2 g2 a2 g2 =f2  | \
w:   |   | 
f2 e2 e2 d2 d2 c2 B2 A2  | {B}A2 f4 {g}f e e3 d d3 c  | 
w:   |   | 
d6 c2 B2 c2 d4  | G2 d4 c2 d3 c d2 e2  | \
w:   |   | 
z2 c4 B2 c3 B c2 d2  | z2 B4 A2 B2 {c}B A B2 {d}c B  | 
w:   |   | 
A2 f e d e d c B/ A/ B/ c/ B A G4  | \
w:   | 
G2 f4 e2 f2 e2 f2 g2  | 
w:   | 
a2 g2 f2 .e2 z2 d e d2 c B  | B2 {d}c B c2 d f e2 d2 c2 B2  | \
w:   |   | 
A3 e d2 c B A4 z4  | 
w:   | 
G2 A4 G2 A4 B2 c2  | d4 c2 B2 e4 d4  | \
w:  4. HANE  |   | 
e4 d2 c2 d4 c2 B2  | d4 c2 B2 c3 B c4  | 
w:   |   | 
z2 A4 f2 f4 e2 ^2/4f2  | g2 a2 g2 ^3/4f2 _2/4e3 d c4  | \
w:   |   | 
d2 a2 g2 ^3/4f2 {g}f2 _2/4e2 e2 d2  | 
w:   | 
d4 c2 B2 d8  | d2 {e}d2 c2 B2 A4 f4  | \
w:   |   | 
e2 f2 e2 a2 g2 f2 e2 d2  | d2 d4 e2 d2 {e}d c B2 d2  | 
w:   |   | 
c4 B4 A3 B c4  | z2 f4 e2 f2 e2 f2 g2  | \
w:   |   | 
a2 g2 f2 e2 e2 d2 d2 c B  | 
w:   | 
B2 f e d2 c2 c2 B2 B3 A  | A3 B c2 d2 e2 g2 f4  | \
w:   |   | 
z2 f4 e2 f2 g2 f2 e2  | 
w:   | 
f2 a2 g2 f2 e3 d c4  | z2 e4 d2 e2 f2 e2 d2  | \
w:   |   | 
{e}d2 c4 B2 d4 c4  | z2 g4 ^3/4f2 g2 a2 g2 =f2  | 
w:   |   | 
f2 e2 e2 d2 d2 c2 B2 A2  | {B}A2 f4 {g}f e e3 d d3 c  | \
w:   |   | 
d6 c2 B2 c2 d4  | 
w:   | 
G2 d4 c2 d3 c d2 e2  | z2 c4 B2 c3 B c2 d2  | \
w:   |   | 
z2 B4 A2 B2 {c}B A B2 {d}c B  | 
w:   | 
A2 f e d e d c B/ A/ B/ c/ B A G4  | \
w:   | 
G2 f4 e2 f2 e2 f2 g2  | 
w:   | 
a2 g2 f2 .e2 z2 d e d2 c B  | B2 {d}c B c2 d f e2 d2 c2 B2  | \
w:   |   | 
A3 e d2 c B A4 z4  | 
w:   | 
|


